X: 1
T: The Tailor's Twist
R: hornpipe
M: 4/4
L: 1/8
K: Dmaj
|:FE|DA, FD AF dA|Bg ed cb ag|fe dc Bg ed|(3cdc (3BcB (3ABA (3GFE|
DA, FD AF dA|Bg ed cb ag|fe dc Bg ec|d/c/d dc d2:|
|:fg|~a3f df af|ba gf eA ce|{f}~g3e cd ef|(3gag (3fgf eg fe|
df ec dD FA|B/A/B ed cb ag|fe dc Bg ec|d/c/d dc d2:|


Tune 996	Setting 29723

